X: 1
P: Green Mountain Petronella
R:reel
Z:John Chambers <jc@trillian.mit.edu>
M:2/4
L:1/16
K:G
D2 | "G"D2G2 GFGE | D2B2 BGAB | "Am"c2cB ABcd | "D7"e2d2 d4 |  "G"D2G2 GFGE |
| D2B2 BGAB | "Am"cdcB AGFG | "D7"A2G2 "G"G2 :: Bd | "G"g2g2 "D7"f2f2 | "C"efge "G"d4 |
| "C"edef "G"g2 B2 | "D7"B2A2 A4 | "Em"g2g2 "D"f2f2 | "C"efge "G"d4 | "C"edef "G"g2B2 | "D7"B2A2 "G"G2 :|
